X: 6
T: Tatter Jack Walsh
R: jig
M: 6/8
L: 1/8
K: Dmix
|:GA|BAB GBg|fde =f2d|g3 gdB|cBc Adc|BAB GBg|fde =f2d|gfd cBc|dGF G3:|||:D|GBd dBG|GBd d2B|cAB cAG|FGA cdc|BAB GBg|fde =f2d|gfd cBc|dGF G3:||


Tune 1638	Setting 15063

